X: 19141
T: Irish Washerwoman, The
R: reel
M: 4/4
K: Gmajor
dc|:BGGB DGGA|BGB^c d2dB|cAAd FAAG|FDFA edcd|
BGGB DGGA|BGB^c d2dB|cedc B^cdB|1 AGFA GDdc:|2 AGFA GABd||
|:gzgf d^cdf|g3a bgag|faaf dfaf|Adfg agf=f|efge dfgf|
efge dcBd|1 c2dc B^cdB|AGFA GABd:|2 c2dc B^cdz|!>!DD z !>!DD z dc||

